X: 1
%T: 花
T: Hana
T: Flower
%C: 詞,曲, 喜納晶吉
C: Lyrics, music by Kina Shoukichi
O: Okinawa
F: http://www.uighurbiz.net/bbs/viewthread.php?tid=176586 2010-3-23
F: http://www.youtube.com/watch?v=-2k1xfFxOk8
F: http://www.youtube.com/watch?v=fyVKAn2Y1n0
F: http://www.youtube.com/watch?v=y34Lneyp5yA
M: 2/4
L: 1/8
K: A
[| "A"z2EE E2F2 | "F#m"z2AB c2A2 | "Bm"BcBA "E7"F2G2 | "A"A4 z4 \
|  "E"z2e2 e2f2 | "F#m"a3a a2e2 | "D"fafe c2Bc | "E7"e4 z4 ||
|  "A"z2EE E2F2 | "F#m"A3B c2A2 | "D"B2c2 a2f2 | "E7"e4 c2e2 \
|  "A"zccd c2{B}B2 | "Bm"zBBc B2{A}A2 | "E7"GGGG (3G2A2B2 | "A"A8 ||
|: "E"z2ee e2f2 | "F#m"a8 | "D"zaab a2f2 | "E7"e4 c2e2 \
|  "F#m"zccd c2{B}B2 | "Bm"zBBc B2{A}A2 | "E7"zGGG (3G2A2B2 | "A"A4 :|
%%text https://www.youtube.com/watch?v=SEmYZ7Chrh0  Rimi Natsukawa, piano
